images/icons/source/cheers.svg

<svg width="48" height="48" viewBox="0 0 48 48" version="1.1" xmlns="http://www.w3.org/2000/svg" xmlns:xlink="http://www.w3.org/1999/xlink" xmlns:figma="http://www.figma.com/figma/ns">
<title>cheers</title>
<desc>Created using Figma</desc>
<g id="Canvas" transform="translate(-119 45)" figma:type="canvas">
<mask id="mask0_alpha" mask-type="alpha">
<path d="M 119 -45L 167 -45L 167 3L 119 3L 119 -45Z" fill="#FFFFFF"/>
</mask>
<g id="cheers" style="mix-blend-mode:normal;" mask="url(#mask0_alpha)" figma:type="frame">
<g id="Vector" style="mix-blend-mode:normal;" figma:type="vector">
<use xlink:href="#path0_fill" transform="translate(121.425 -45)" fill="#3BB75E" style="mix-blend-mode:normal;"/>
</g>
</g>
</g>
<defs>
<path id="path0_fill" d="M 26.0407 6.21591L 29.8753 3.83988C 30.2909 3.58153 30.8377 3.70982 31.0961 4.12661C 31.3538 4.54282 31.2255 5.08968 30.8093 5.34744L 26.9748 7.72346C 26.8294 7.81391 26.668 7.85648 26.5084 7.85648C 26.2116 7.85648 25.9219 7.7075 25.754 7.43673C 25.4962 7.02053 25.6245 6.47367 26.0407 6.21591ZM 24.1495 5.47218C 24.1897 5.4775 24.2299 5.48046 24.2695 5.48046C 24.7064 5.48046 25.0871 5.15766 25.1468 4.71249L 25.6476 1.00509C 25.7132 0.519716 25.3727 0.073361 24.8879 0.007738C 24.4043 -0.0561114 23.9562 0.282054 23.89 0.768019L 23.3892 4.47542C 23.3242 4.9602 23.6647 5.40715 24.1495 5.47218ZM 18.3794 2.09467C 18.0223 1.75887 17.4613 1.77483 17.1255 2.13073C 16.7891 2.48722 16.805 3.04827 17.1615 3.38466L 19.7539 5.83163C 19.9254 5.99303 20.1441 6.07343 20.3623 6.07343C 20.5976 6.07343 20.8329 5.98002 21.0073 5.79557C 21.3437 5.43907 21.3277 4.87803 20.9712 4.54163L 18.3794 2.09467ZM 21.0368 12.7528C 21.1504 12.9591 21.1775 13.2015 21.1119 13.4273L 18.0779 23.9235C 17.0084 27.6238 13.8313 30.2085 10.3509 30.2085C 9.99977 30.2085 9.64978 30.1789 9.30334 30.1257L 5.66451 42.7165L 8.4928 43.5341C 8.9634 43.6701 9.23417 44.1619 9.09819 44.6319C 8.98645 45.0204 8.63174 45.2728 8.24687 45.2728C 8.16528 45.2728 8.08251 45.2616 8.00034 45.2379L 0.640513 43.1108C 0.16992 42.9748 -0.100849 42.4829 0.0351266 42.0129C 0.170511 41.5418 0.661796 41.271 1.13298 41.407L 3.96127 42.2246L 7.60069 29.6309C 6.01746 28.9451 4.73397 27.6912 3.9394 26.0199C 3.02659 24.0991 2.86578 21.8572 3.48713 19.7065L 3.57581 19.3996L 3.55985 19.3718C 3.56399 19.3695 3.57877 19.3612 3.58823 19.3565L 6.52057 9.21032C 6.65654 8.73973 7.14724 8.4666 7.61842 8.60494L 20.5059 12.3295C 20.733 12.3945 20.9233 12.547 21.0368 12.7528ZM 16.3936 23.3666C 15.5103 23.5812 14.7979 23.7207 14.1364 23.7207C 12.8428 23.7207 11.7048 23.2034 9.6687 21.749C 7.64266 20.3012 5.94711 20.4401 5.07627 20.6731C 4.72333 22.2575 4.88058 23.8685 5.54154 25.259C 6.25098 26.7512 7.45348 27.8082 8.92793 28.2333C 9.39142 28.3675 9.8703 28.4355 10.3515 28.4355C 13.0468 28.4355 15.5233 26.3781 16.3747 23.4316L 16.3936 23.3666ZM 19.1627 13.7868L 7.97905 10.5553L 5.59948 18.7895C 6.8948 18.6583 8.69736 18.8752 10.7003 20.3053C 13.4701 22.2841 13.8798 22.1794 16.5502 21.5013C 16.6827 21.4676 16.8216 21.4328 16.9635 21.3967L 19.1627 13.7868ZM 42.719 45.9468L 35.3302 47.9687C 35.2522 47.9899 35.173 48 35.0961 48C 34.7065 48 34.3488 47.7411 34.2412 47.3473C 34.1124 46.8749 34.3902 46.3872 34.8632 46.2577L 37.7015 45.4815L 34.2418 32.8393C 33.9279 32.8831 33.611 32.9073 33.293 32.9073C 29.7682 32.9073 26.5876 30.2765 25.5589 26.5106L 22.6756 15.9724C 22.6142 15.7454 22.6443 15.5036 22.7614 15.2991C 22.8784 15.0945 23.0706 14.9449 23.2976 14.8829L 36.236 11.344C 36.7077 11.2163 37.1961 11.4929 37.3255 11.9653L 40.2088 22.504C 40.7994 24.6631 40.6067 26.9025 39.6655 28.8103C 38.8467 30.4704 37.546 31.7054 35.9534 32.3693L 39.413 45.0133L 42.2526 44.2364C 42.7226 44.1087 43.2127 44.386 43.3421 44.8584C 43.4698 45.3296 43.192 45.8179 42.719 45.9468ZM 26.7064 23.097C 29.3763 23.7745 29.7872 23.8791 32.5569 21.901C 34.6314 20.42 36.4896 20.2397 37.7932 20.4005L 35.8475 13.2884L 24.6201 16.3597L 26.4457 23.0313C 26.5332 23.0532 26.6237 23.0763 26.7064 23.097ZM 34.648 30.951C 36.1278 30.5455 37.3444 29.5073 38.0746 28.0258C 38.8236 26.5076 38.9738 24.7127 38.4973 22.9722L 38.3158 22.3089C 37.4934 22.0565 35.7263 21.8176 33.5886 23.3447C 31.5525 24.799 30.4138 25.3163 29.1197 25.3163C 28.4871 25.3163 27.812 25.1898 26.9825 24.9918L 27.2698 26.0429C 28.0887 29.0403 30.5652 31.1337 33.293 31.1337C 33.7488 31.1337 34.2028 31.0722 34.6433 30.9522C 34.6439 30.9516 34.6444 30.951 34.6456 30.951C 34.6462 30.9516 34.6474 30.9516 34.648 30.951Z"/>
</defs>
</svg>

<svg width="48" height="48" viewBox="0 0 48 48" xmlns="http://www.w3.org/2000/svg" xmlns:xlink="http://www.w3.org/1999/xlink" xmlns:figma="http://www.figma.com/figma/ns"><title>cheers</title><desc>Created using Figma</desc><g transform="translate(-119 45)" figma:type="canvas"><mask id="a"><path d="M119-45h48V3h-48v-48z" fill="#FFF"/></mask><g style="mix-blend-mode:normal" mask="url(#a)" figma:type="frame"><use xlink:href="#b" transform="translate(121.425 -45)" fill="#3BB75E" style="mix-blend-mode:normal" figma:type="vector"/></g></g><defs><path id="b" d="M26.04 6.216l3.835-2.376a.886.886 0 1 1 .934 1.507l-3.834 2.376a.886.886 0 0 1-.934-1.508zm-1.89-.744a.886.886 0 0 0 .997-.76l.5-3.707A.887.887 0 1 0 23.89.768l-.5 3.707a.887.887 0 0 0 .76.997zm-5.77-3.377a.888.888 0 0 0-1.218 1.29l2.592 2.447a.885.885 0 0 0 1.253-.036.887.887 0 0 0-.036-1.254L18.38 2.095zm2.657 10.658c.113.206.14.448.075.674l-3.034 10.497c-1.07 3.7-4.247 6.285-7.727 6.285-.351 0-.701-.03-1.048-.083l-3.638 12.59 2.828.818A.886.886 0 1 1 8 45.238L.64 43.11a.887.887 0 0 1 .493-1.704l2.828.818 3.64-12.594c-1.584-.686-2.867-1.94-3.662-3.611-.912-1.92-1.073-4.163-.452-6.314l.089-.306-.016-.028.028-.015L6.521 9.21a.884.884 0 0 1 1.097-.605l12.888 3.724a.883.883 0 0 1 .53.424zm-4.643 10.614c-.884.214-1.596.354-2.258.354-1.293 0-2.431-.518-4.467-1.972-2.026-1.448-3.722-1.309-4.593-1.076-.353 1.585-.195 3.196.466 4.586.709 1.492 1.911 2.55 3.386 2.974.463.134.942.203 1.423.203 2.696 0 5.172-2.058 6.024-5.004l.019-.065zm2.769-9.58L7.979 10.555 5.6 18.79c1.296-.132 3.098.085 5.101 1.515 2.77 1.98 3.18 1.874 5.85 1.196l.413-.104 2.2-7.61zm23.556 32.16l-7.389 2.022a.887.887 0 0 1-.467-1.711l2.839-.777-3.46-12.642c-.314.044-.631.068-.949.068-3.525 0-6.705-2.63-7.734-6.396l-2.883-10.539a.887.887 0 0 1 .622-1.09l12.938-3.538a.889.889 0 0 1 1.09.621l2.883 10.539c.59 2.16.398 4.398-.544 6.306-.818 1.66-2.119 2.895-3.712 3.56l3.46 12.643 2.84-.777a.89.89 0 0 1 1.09.622.888.888 0 0 1-.624 1.089zm-16.013-22.85c2.67.677 3.081.782 5.85-1.196 2.075-1.481 3.934-1.661 5.237-1.5l-1.946-7.113L24.62 16.36l1.826 6.671.26.066zm7.942 7.854c1.48-.405 2.696-1.444 3.427-2.925.749-1.518.899-3.313.422-5.054l-.181-.663c-.823-.253-2.59-.491-4.727 1.036-2.037 1.454-3.175 1.971-4.47 1.971-.632 0-1.307-.126-2.136-.324l.287 1.05c.819 2.998 3.295 5.092 6.023 5.092.456 0 .91-.062 1.35-.182l.003-.001h.002z"/></defs></svg>
